X:4
%%scale 0.65
T:Penitet
C:Michael East
%%score [1 | 2 |3 |4 |5]
M:4/2
L:1/4
K:C
V:1 name="Treble I"
A d>B ^c d f>e d | c A G2 F/G/A/B/ c2 | d d2 ^c d2 z2| z2 A d>B ^c d2 |
z a g/a/f/g/ e f e2 | d d2 c B e2 d-|d ^c d2 B e>d B |^c>d e d2 c d =c/d/ |
e2 z A B G A2 | z4 d a>g e | f2 e2 d c/d/ e/f/d/e/ |^c A z2 A2 B2 | c A G2 F c2 _B |
A2 z2 d a>^f ^g | a f e2 d3 e | f>e d g2 f e2 | ^f2 z a a a g/f/g/a/ | g f e d ^c A/B/ c d/=c/ |
B A B2 A a/g/ f2 | g/e/ a2 ^g a2 z f-| f e/e/ e d ^c d2 A/A/ | A f e2 z f e/d/c/_B/| A2 d2 z a g/f/e/d/ | ^c d2 c d4 | z4 z c _B/A/G/F/ | E D E2 ^F4 | G3 A B c d2-| d2 ^c2 d4 | z4 z2 d2-| 
d2 d2 c4-|c2 c2 A4 | z4 a3 g | f3 e d4 | z2 d4 e2 |^c2 d4 c2 |
d2 z d>d d d A/B/ |c B A G3/2 F/E/D/ C c-|c B A d>c B A2 | B2 z g/f/ e d z g/f/ | e e z a/g/ f e z a/g/ | 
f3/2 e/d/c/ _B A G A2 | B4 z2 g2 | e3 e B2 c2 | B2 A2 B2 e2 | ^d2 e4 d2 | e8|
z4 g3 ^f | e d e2 A4 | e2 d4 ^c2 | d3 c B A B2 | A2 E2 G A B2 |
A4 A3 G | ^F E F2 G4 | A4 A4 | z2 g3 g ^f2 |
e d e2 A4 | z8 | d3 c B A B2 |A2 d4 ^c2 | Hd8 |]
V:2 name="Treble II"
z8 | z8 | z4 A d>B  ^c | d A/B/ c A G  g f a | g/a/ f e/f/d/e/  ^c d2 c |
d/e/ f e A2 ^G A a-|a/g/ e f/g/ a ^g a2 g | a a>g f e2 A c-| c/B/ G A2 z4 |
e a>g e f2 e2 | d d2 ^c d a g/a/f/g/ |e f e2 d4 | z8 | A d>B ^c d e d2 |
c A z2 z4 | z A f e2 d e2 | d2 z f f f e/d/e/f/ | e d ^c d e c/d/ e f|
g/e/ a2 ^g a e d>c | B A B2 ^c2  z d | A>A A f e f2 e/e/ | e d ^c2 z4 |
z a g/f/e/d/ ^c =c _B/A/G/F/| E D E2 F>G A2 | z4 z a g/f/e/d/ |^c d2 c d4 |
z4 z2 d2 | e f g4 f2 | e4 d4 | z8 | z4 z2 d2 | c B/A/ B2 A4 |
d3 c _B3 A | G8 | z2 A2 A4 | A2 z B>A B A2-|A G ^F G E e>dc/B/ |
A G2 ^F G d d2 | d g/f/ e d z g/f/ e d | z a/g/ f e z a/g/ f>e | d/c/_B/c/ d3 g2 ^f |
!mediumphrase!g2 g2 e3 e |  B4 z4 | z8 | z4 B3 A | ^G ^F G2 A2 z2 | d3 c B A B2 |
^c2 A2 z4 | g3 ^f e d e2 | d4 e2 d2-|d2 ^c2 d2 g2-|g g ^f2 e d e2 | d8 |
z4 d3 c | B A B2 A4 | a3 g ^f e f2 | g2 G3 ^F G2 | A4 z2 g2-| g2 ^f2 e3 e |Hd8 |]
V:3 name="Tenor I" clef=alto middle=c octave=-1
z8 | z8 | d a>g e f2 e2 | d/e/f/g/ a2 z2 z f | e f c/A/_B/G/ A2 a>g |
f/e/ d e2 e>d ^c d | A2 d f e c/d/ e2 | A>B ^c d A2 z2 | z2 a d'>b ^c' d'3/2 "\="c'//b// |
a/g/ f e2 d d2 ^c | d2 A2 a2 z2 | z4 d a>^f ^g | a/g/ f e2 d a g/a/f/g/ |
e d e2 z4 | a d'>b ^c' d' a z A | a3 g e f/g/ a2 | a2 z f f/g/a/b/ c'2-|
c' d' a _b a3 d | e f e>d ^c2 d2 | z4 z2 z a-|a e/e/ e a a d2 e/e/ | e f/g/ a2 z4|
z c' _b/a/g/f/ e2 z2 | z2 z a a/g/f/e/ d2 | e2 f2 z2 z _b | a/g/f/g/ a2 a4 |
b3 c' b2 a2 | g4 a4-| a8 | _b6 a2 | g6 f2 | e8 |
d4 z4 | d'3 c' _b a g2-| g2 f2 e4 | ^f2 z g>f g d/e/ "\="f-|f g d B c c'3/2 b/a/g/ |
^f g a2 g g2 f | g4 g4 | z2 a2 a4 | z d2 d'>c' _b a2 | !mediumphrase!g2 g2 g3 g |
^g4 g2 a2 | b2 e2 g4 | ^f2 g2 f4 | e4 a3 g | ^f e f2 g2 d2 | z4 d'3 c' |
b a b2 a4-|a4 z4 | a3 a g ^f g f | e2 d4 ^c2 | d4 g3 ^f | e d e2 d4-|
d4 ^c2 d2 | e4 d3 c | B A B2 ^c d2 c | d6 d2 | ^c2 d2 e4 | H^f8 |]
V:4 name="Tenor II" clef=alto middle=c octave=-1
z8| A d>B ^c d2 =c A | _B F/G/ A2 z d e A | z a>g f e2 d2 |
Z3 |z2 e a>g e f2 | e2 d AG2 F/G/A/B/|^c d2 c d2 A2 | a4 d f c/A/_B/G/ |
A2 G2 F D z2 | A d>B ^c d f e/f/d/e/ |^cd g e d =c B2 | A4 z4 | D d2 B ^c d2 c |
d2 z2 z4| z8| z4 z2 z d | e f e>e A2 z d-|d ^c/c/ c d A A2 A/A/ |
A A A2 z d d/_B/A/G/ | F2 G2 A4-| A4 d2 z f | e/d/c/_B/ A/G/A/=B/ c/d/ e z d |
e f e2 d4-|d4 z4 | z8 | z2 E2 F G A2-|A2 G4 F2-|F2 E2 F G A2-|
A2 ^G2A4-|A4 d3 c | _B8 | A8|A2 z2 z4|
z8 | z G d>c B/A/ G d2 | G G c B z G c B | z A d ^c z A d c |
d3 d A _B/c/ d2 | !mediumphrase!d2 G2 c3 c | B2 B2 e3 e | e d c2 B4-| B4 B4-|
B4 e4 | d8 | A3 G ^F E F2 | G4 z4 | z4 g3 ^f |
e d e2 d2 B2 | ^c2 d2 A4-|A4 z4 | a3 g ^f e f2 | g4 e2 d2-|
d ^c/B/ c2 d4-|d4 z4 |z4 G3 ^F | E2 D2 A2 A2 | HA8 |]
V:5 clef=bass name=Bass middle=d octave=-2
Z7 | z4 z2 d a-|a/g/ e f2 e2 d/e/f/g/ | a2 A2 z4 |
z8 |A c>B ^c d2 B2 | A2 z2 z f c/A/_B/G/ | A f e2 z4 | z4 d d'>b ^c' |
d' d/e/ f g a4 | d2 z2 z4 | Z3 | z4 z d2 ^c/c/ | ^c d A2 z4 |
z8 | z4 z2 z d' | c'/_b/a/g/ f/e/ d a4 |A4 d4 | g6  f2 |
e4 d4 | ^c4 d3 =c | _B4 c4-| c4 d4 |
e3 d ^c4 | d4 G4-|G8| A8 |
d2 z2 z4 | z8 | z8 | z2 z g c' b z g | c' c' z a d' ^c' z a |
d'3/2 c'/_b/a/ g ^f g d2 | g4 z2 c2 | e3 e e2 a2 | ^g2 a2 e4 |
B6 B2 | e3 d ^c B c2 | d4 G4 | A4 d4 |
z4 a3 g | ^f e f2 g4 | a4 b2 g2 | a4 z4 |
d3 c B A B2 | ^c4 d4 | G4 A4-|A4 z4 |
g3 ^f e d e2 | ^f4 g2 G2 | A8 | Hd8 |]

